X:17638
T:Tonada (CT 311)
R:Tonada
C:Tradicional
S:Música Tradicional Asturiana, (C) Tello & Tito. Asturies, 2001.
S:http://pagina.de/MusTradAst <telloytito@asturies.org>
N:Canción de empleo indeterminado, dictada por Leandra González Zuazua, de cincuenta años, d'Uviéu, quien dice las aprendió en Lluanco.
N:Suele cantarse con acompañamiento de gaita.
O:Lluanco
A:Asturies
Z:Cancioneru de Torner 311
M:3/4
L:1/8
Q:1/4=112
W:Una vez que fui a to casa,
W:lerasa,
W:a coretxar, lereque, de madreñes,
W:lereñes,
W:miré pal escudilleru,
W:lereru,
W:nin vi platos, leratos, nin escudielles,
W:lerelles,
W:miré si había colgando,
W:lerando,
W:de les tos, torotós, calamiyeres
W:lereyes:
W:nin vi pote nin caldera,
W:lerera,
W:nin llacones, lerones, nin morcielles,
W:lerelles.
W:Lo que teníes en casa,
W:lerasa,
W:bien lo vi, lirilí, probe mio nena,
W:lereña:
W:nun rinconcín a escures,
W:lerures,
W:un xergón, lererón, chando la fueya,
W:lereya.
W:Nun golví más a pasar,
W:lararar,
W:pela to, torotó, puerta, rapaza,
W:leraza,
W:pos moza ensin daqué suyo,
W:leruyo,
W:nun la quier mio padre en casa,
W:lerasa.
K:G
|Gd df ed|cc/2B/2 cc ed|AA/2G/2 Ad cA|
GG/2F/2 GG BA|GG/2F/2 GG BA|GG/2F/2 GG- Gz||


